src/assets/images/podcast/spotify.svg

<svg width="51" height="50" viewBox="0 0 51 50" fill="none" xmlns="http://www.w3.org/2000/svg">
<path d="M25.9277 0.622314C12.081 0.622314 0.855469 11.5365 0.855469 24.9996C0.855469 38.4641 12.081 49.3778 25.9277 49.3778C39.7751 49.3778 51 38.4642 51 24.9996C51 11.5374 39.7757 0.623478 25.9274 0.623478L25.9277 0.622314ZM37.4257 35.7814C36.9754 36.4995 36.0132 36.7245 35.2769 36.287C29.3893 32.7883 21.9787 31.9979 13.2513 33.9364C12.4103 34.1239 11.572 33.6112 11.3804 32.7938C11.1879 31.9761 11.7127 31.161 12.5558 30.9747C22.1065 28.8517 30.2989 29.7655 36.9075 33.6919C37.644 34.1314 37.8775 35.0659 37.4254 35.782L37.4257 35.7814ZM40.4945 29.1446C39.9275 30.0392 38.7245 30.3198 37.8056 29.7705C31.0677 25.7434 20.7934 24.5769 12.822 26.9296C11.7882 27.2332 10.6963 26.6668 10.3825 25.6633C10.0711 24.6582 10.6541 23.5986 11.6861 23.2929C20.7916 20.6066 32.1111 21.9078 39.8505 26.532C40.7697 27.0822 41.0601 28.2524 40.4942 29.1449L40.4945 29.1446ZM40.758 22.2327C32.6761 17.5661 19.3452 17.137 11.6301 19.4137C10.3912 19.779 9.08104 19.099 8.70559 17.8944C8.33015 16.6893 9.02894 15.4163 10.2687 15.0501C19.1252 12.436 33.8479 12.9411 43.1513 18.311C44.2657 18.954 44.6313 20.3533 43.9708 21.4354C43.3121 22.5189 41.869 22.876 40.7583 22.2327H40.758Z" fill="#2EBD59"/>
</svg>

<svg width="51" height="50" fill="none" xmlns="http://www.w3.org/2000/svg"><path d="M25.928.622C12.08.622.855 11.537.855 25c0 13.464 11.226 24.378 25.073 24.378S51 38.464 51 25C51 11.537 39.776.623 25.927.623zm11.498 35.16c-.45.718-1.413.943-2.15.505-5.887-3.499-13.297-4.29-22.025-2.35-.84.187-1.679-.326-1.87-1.143-.193-.818.332-1.633 1.175-1.82 9.55-2.122 17.743-1.209 24.352 2.718.736.44.97 1.374.517 2.09zm3.069-6.637c-.567.894-1.77 1.175-2.69.625-6.737-4.027-17.012-5.193-24.983-2.84-1.034.303-2.126-.263-2.44-1.267-.31-1.005.272-2.064 1.304-2.37 9.106-2.686 20.425-1.385 28.164 3.239.92.55 1.21 1.72.644 2.613zm.263-6.912c-8.082-4.667-21.413-5.096-29.128-2.82-1.239.366-2.549-.314-2.924-1.519-.376-1.205.323-2.478 1.563-2.844 8.856-2.614 23.579-2.109 32.882 3.261 1.115.643 1.48 2.042.82 3.124-.659 1.084-2.102 1.441-3.213.798z" fill="#2EBD59"/></svg>
